16x16/apps/morpheus.svg

<svg height="16" width="16" xmlns="http://www.w3.org/2000/svg"><rect fill="#f4f4f7" height="15.8" rx=".79" width="15.8" x=".1" y=".1"/><path d="m.8 0c-.443 0-.8.357-.8.8v9.59l4-.89 1-5.5-2.552-4z" fill="#f73a3a"/><path d="m2.448 0 2.552 4h6.5l3.736-3.996c-.012 0-.024-.004-.036-.004z" fill="#f4f4f7"/><path d="m13 10-6 2-.5 4h8.7c.443 0 .8-.357.8-.8v-1.294c-.008-.043-.02-.088-.021-.126 0-.043.014-.086.021-.13v-2.268z" fill="#357cca"/><path d="m15.236.004-3.736 3.996 1.5 6 3 1.382v-10.582a.796.796 0 0 0 -.764-.796z" fill="#ccc"/><path d="m5 4-1 5.5 3 2.5 6-2-1.5-6z" fill="#fece00"/><path d="m4 9.5-4 .89v4.81c0 .443.357.8.8.8h5.7l.5-4z" fill="#f4f4f7"/></svg>

<svg height="16" width="16" xmlns="http://www.w3.org/2000/svg">
    <rect fill="#f4f4f7" height="15.8" rx=".79" width="15.8" x=".1" y=".1"/>
    <path d="M.8 0C.357 0 0 .357 0 .8v9.59l4-.89L5 4 2.448 0z" fill="#f73a3a"/>
    <path d="M2.448 0 5 4h6.5L15.236.004C15.224.004 15.212 0 15.2 0z" fill="#f4f4f7"/>
    <path d="m13 10-6 2-.5 4h8.7c.443 0 .8-.357.8-.8v-1.294c-.008-.043-.02-.088-.021-.126 0-.043.014-.086.021-.13v-2.268z" fill="#357cca"/>
    <path d="M15.236.004 11.5 4l1.5 6 3 1.382V.8a.796.796 0 0 0-.764-.796z" fill="#ccc"/>
    <path d="M5 4 4 9.5 7 12l6-2-1.5-6z" fill="#fece00"/>
    <path d="m4 9.5-4 .89v4.81c0 .443.357.8.8.8h5.7l.5-4z" fill="#f4f4f7"/>
</svg>
